icon-themes/breeze_svg/cmd/lc_designerdialog.svg

<?xml version="1.0" encoding="UTF-8" standalone="no"?>
<!-- Created with Inkscape (http://www.inkscape.org/) -->

<svg
   xmlns:dc="http://purl.org/dc/elements/1.1/"
   xmlns:cc="http://creativecommons.org/ns#"
   xmlns:rdf="http://www.w3.org/1999/02/22-rdf-syntax-ns#"
   xmlns:svg="http://www.w3.org/2000/svg"
   xmlns="http://www.w3.org/2000/svg"
   xmlns:sodipodi="http://sodipodi.sourceforge.net/DTD/sodipodi-0.dtd"
   xmlns:inkscape="http://www.inkscape.org/namespaces/inkscape"
   id="svg7384"
   height="24"
   width="24"
   version="1.1"
   inkscape:version="0.91 r13725"
   sodipodi:docname="lc_designerdialog.svg"
   inkscape:export-filename="/home/uri/Descargas/NITRUX-KDE/NITRUX-KDE/16x16/actions/view-preview.png"
   inkscape:export-xdpi="30"
   inkscape:export-ydpi="30">
  <defs
     id="defs9" />
  <sodipodi:namedview
     pagecolor="#ffffff"
     bordercolor="#666666"
     borderopacity="1"
     objecttolerance="10"
     gridtolerance="10000"
     guidetolerance="10"
     inkscape:pageopacity="0"
     inkscape:pageshadow="2"
     inkscape:window-width="1920"
     inkscape:window-height="1021"
     id="namedview7"
     showgrid="true"
     inkscape:zoom="33"
     inkscape:cx="7.0646706"
     inkscape:cy="13.342756"
     inkscape:window-x="-4"
     inkscape:window-y="0"
     inkscape:window-maximized="1"
     inkscape:current-layer="svg7384"
     inkscape:showpageshadow="false"
     borderlayer="true"
     fit-margin-top="0"
     fit-margin-left="0"
     fit-margin-right="0"
     fit-margin-bottom="0"
     inkscape:snap-bbox="true"
     inkscape:object-nodes="true">
    <sodipodi:guide
       position="3,21"
       orientation="18,0"
       id="guide4064" />
    <sodipodi:guide
       position="3,3"
       orientation="0,18"
       id="guide4066" />
    <sodipodi:guide
       position="21,3"
       orientation="-18,0"
       id="guide4068" />
    <sodipodi:guide
       position="21,21"
       orientation="0,-18"
       id="guide4070" />
    <sodipodi:guide
       position="4,20"
       orientation="16,0"
       id="guide4072" />
    <sodipodi:guide
       position="4,4"
       orientation="0,16"
       id="guide4074" />
    <sodipodi:guide
       position="20,4"
       orientation="-16,0"
       id="guide4076" />
    <sodipodi:guide
       position="20,20"
       orientation="0,-16"
       id="guide4078" />
    <inkscape:grid
       type="xygrid"
       id="grid4080"
       originx="1px"
       originy="1px" />
  </sodipodi:namedview>
  <metadata
     id="metadata90">
    <rdf:RDF>
      <cc:Work
         rdf:about="">
        <dc:format>image/svg+xml</dc:format>
        <dc:type
           rdf:resource="http://purl.org/dc/dcmitype/StillImage" />
        <dc:title>Gnome Symbolic Icon Theme</dc:title>
      </cc:Work>
    </rdf:RDF>
  </metadata>
  <title
     id="title9167">Gnome Symbolic Icon Theme</title>
  <path
     inkscape:connector-curvature="0"
     style="color:#000000;display:inline;overflow:visible;visibility:visible;fill:#f47750;fill-opacity:1;fill-rule:nonzero;stroke:none;stroke-width:2;marker:none;enable-background:accumulate"
     d="m 21,5 c 0,-0.552285 -0.447715,-1 -1,-1 -0.552285,0 -1,0.447715 -1,1 0,0.552285 0.447715,1 1,1 0.552285,0 1,-0.447715 1,-1 z m 0,4 c 0,-0.552285 -0.447715,-1 -1,-1 -0.552285,0 -1,0.447715 -1,1 0,0.552285 0.447715,1 1,1 0.552285,0 1,-0.447715 1,-1 z m 0,4 c 0,-0.552285 -0.447715,-1 -1,-1 -0.552285,0 -1,0.447715 -1,1 0,0.552285 0.447715,1 1,1 0.552285,0 1,-0.447715 1,-1 z"
     id="path3021"
     inkscape:transform-center-x="1"
     inkscape:transform-center-y="1" />
  <path
     inkscape:connector-curvature="0"
     style="fill:#4d4d4d;fill-rule:evenodd;stroke:none;stroke-width:1px;stroke-linecap:butt;stroke-linejoin:miter;stroke-opacity:1"
     d="M 4,11 4,20 20,20 4,11 Z M 5,12.8125 16.09375,19 5,19 5,12.8125 Z"
     id="path4163-4" />
  <path
     inkscape:connector-curvature="0"
     style="opacity:1;fill:#4d4d4d;fill-opacity:1;stroke:none"
     d="m 6,4 0,2 5,0 0,8 2,0 0,-8 5,0 0,-2 -12,0 z"
     id="rect4112" />
</svg>

<svg xmlns="http://www.w3.org/2000/svg" viewBox="0 0 24 24">
 <path 
     style="fill:#f47750" 
     d="M 20 4 C 19.447715 4 19 4.447715 19 5 C 19 5.552285 19.447715 6 20 6 C 20.552285 6 21 5.552285 21 5 C 21 4.447715 20.552285 4 20 4 z M 20 8 C 19.447715 8 19 8.447715 19 9 C 19 9.552285 19.447715 10 20 10 C 20.552285 10 21 9.552285 21 9 C 21 8.447715 20.552285 8 20 8 z M 20 12 C 19.447715 12 19 12.447715 19 13 C 19 13.552285 19.447715 14 20 14 C 20.552285 14 21 13.552285 21 13 C 21 12.447715 20.552285 12 20 12 z "
     />
 <path 
     style="fill:#4d4d4d" 
     d="M 6 4 L 6 6 L 11 6 L 11 14 L 13 14 L 13 6 L 18 6 L 18 4 L 6 4 z M 4 11 L 4 20 L 20 20 L 4 11 z M 5 12.8125 L 16.09375 19 L 5 19 L 5 12.8125 z "
     />
 </svg>
